public/images/social-github.svg

<svg fill="none" height="26" viewBox="0 0 27 26" width="27" xmlns="http://www.w3.org/2000/svg"><path d="m13.1905.128906c-7.20657 0-13.043527 5.759904-13.043527 12.871294 0 7.1114 5.836957 12.8713 13.043527 12.8713 7.2065 0 13.0434-5.7599 13.0434-12.8713 0-7.11139-5.8369-12.871294-13.0434-12.871294zm1.6875 15.252494c.269.2333.4809 1.0538.4809 1.4319v3.3305h-3.8559s0-1.1343 0-1.9066c-2.64135.5631-3.37505-1.4319-3.37505-1.4319-.48098-.9493-.96196-1.432-.96196-1.432-.96195-.5631 0-.4746 0-.4746.96196 0 1.45109.9493 1.45109.9493.84783 1.4158 2.35602 1.1906 2.89402.9492 0-.4746.212-1.1986.481-1.4319-2.11143-.2333-3.86415-1.4319-3.86415-3.8131 0-2.38121.48098-2.85584.97011-3.33047-.09783-.23329-.49728-1.10211.0163-2.38119 0 0 .94564 0 1.91574 1.43193.481-.47463 1.9321-.47463 2.4131-.47463.4809 0 1.932 0 2.413.47463.962-1.43193 1.9158-1.43193 1.9158-1.43193.5136 1.27908.1141 2.1479.0163 2.38119.481.47463.9619.94926.9619 3.33047 0 2.3812-1.7527 3.5798-3.8641 3.8131z" fill="#51b8bc"/></svg>

<svg width="27" height="26" viewBox="0 0 27 26" fill="none" xmlns="http://www.w3.org/2000/svg">
<path d="M13.1905 0.128906C5.98393 0.128906 0.146973 5.88881 0.146973 13.0002C0.146973 20.1116 5.98393 25.8715 13.1905 25.8715C20.397 25.8715 26.2339 20.1116 26.2339 13.0002C26.2339 5.88881 20.397 0.128906 13.1905 0.128906ZM14.878 15.3814C15.147 15.6147 15.3589 16.4352 15.3589 16.8133V20.1438H11.503C11.503 20.1438 11.503 19.0095 11.503 18.2372C8.86165 18.8003 8.12795 16.8053 8.12795 16.8053C7.64697 15.856 7.16599 15.3733 7.16599 15.3733C6.20404 14.8102 7.16599 14.8987 7.16599 14.8987C8.12795 14.8987 8.61708 15.848 8.61708 15.848C9.46491 17.2638 10.9731 17.0386 11.5111 16.7972C11.5111 16.3226 11.7231 15.5986 11.9921 15.3653C9.88067 15.132 8.12795 13.9334 8.12795 11.5522C8.12795 9.17099 8.60893 8.69636 9.09806 8.22173C9.00023 7.98844 8.60078 7.11962 9.11436 5.84054C9.11436 5.84054 10.06 5.84054 11.0301 7.27247C11.5111 6.79784 12.9622 6.79784 13.4432 6.79784C13.9241 6.79784 15.3752 6.79784 15.8562 7.27247C16.8182 5.84054 17.772 5.84054 17.772 5.84054C18.2856 7.11962 17.8861 7.98844 17.7883 8.22173C18.2693 8.69636 18.7502 9.17099 18.7502 11.5522C18.7502 13.9334 16.9975 15.132 14.8861 15.3653L14.878 15.3814Z" fill="#51B8BC"/>
</svg>
